X: 141
T: Sloan's Lamentation
N:"Slow"
B:O'Neill's 141
Z:Transcribed by henrik.norbeck@mailbox.swipnet.se
M:2/4
L:1/8
K:Bb
(d/e/)|~f>=g d{a}(g/^f/)|gG (~B>c)|{Bc}d(c/B/) .G(B/A/)|G3"fine":|
d|(g>a) {ga}.b(a/g/)|af d>d|(~g>a) {ga}bg/f/|b3 "D.C."||


